;FLAVOR:Marlin
;TIME:4097
;Filament used: 3.34777m
;Layer height: 0.2
;MINX:78.147
;MINY:73.817
;MINZ:0.2
;MAXX:141.862
;MAXY:150.163
;MAXZ:37
;Generated with Cura_SteamEngine 4.6.1
M140 S60
M105
M190 S60
M104 S220
M105
M109 S220
M82 ;absolute extrusion mode
G21 ;metric values
G90 ;absolute positioning
M82 ;set extruder to absolute mode
M107 ;start with the fan off
G28 ;move X/Y/Z to min endstops
G29 ;auto level
G1 Z15.0 F9000 ;move the platform down 15mm
G92 E0 ;zero the extruded length
G1 F200 E3 ;extrude 3mm of feed stock
G92 E0 ;zero the extruded length again
G1 F9000
;Put printing message on LCD screen
M117 Printing...
G92 E0
G92 E0
G1 F1500 E-3.5
;LAYER_COUNT:185
;LAYER:0
M107
M204 S1000
G0 F9000 X124.402 Y76.407 Z0.2
;TYPE:SKIRT
G1 F1500 E0
G1 F2100 X124.825 Y76.441 E0.01411
G1 X125.075 Y76.478 E0.02252
G1 X125.568 Y76.592 E0.03935
G1 X126.091 Y76.809 E0.05818
G1 X126.387 Y76.964 E0.0693
G1 X126.815 Y77.233 E0.08611
G1 X127.196 Y77.567 E0.10296
G1 X127.435 Y77.842 E0.11508
G1 X127.67 Y78.146 E0.12786
G1 X127.946 Y78.569 E0.14466
G1 X128.072 Y78.826 E0.15418
G1 X128.146 Y78.996 E0.16035
G1 X128.311 Y79.474 E0.17716
G1 X128.397 Y79.959 E0.19355
G1 X128.436 Y80.354 E0.20675
G1 X128.449 Y80.56 E0.21361
G1 X128.492 Y81.832 E0.25594
G1 X128.514 Y82.639 E0.2828
G1 X128.659 Y85.352 E0.37316
G1 X128.881 Y88.06 E0.46353
G1 X129.187 Y90.83 E0.55622
G1 X129.554 Y93.47 E0.64487
G1 X130.02 Y96.238 E0.73823
G1 X130.536 Y98.856 E0.82698
G1 X131.151 Y101.563 E0.91931
G1 X131.829 Y104.209 E1.01016
G1 X132.591 Y106.864 E1.10203
G1 X133.414 Y109.452 E1.19236
G1 X134.325 Y112.057 E1.28414
G1 X135.3 Y114.61 E1.37504
G1 X136.348 Y117.137 E1.46603
G1 X137.871 Y120.497 E1.58873
G1 X138.2 Y121.186 E1.61412
G1 X138.573 Y122.005 E1.64405
G1 X138.817 Y122.611 E1.66578
G1 X139.15 Y123.486 E1.69692
G1 X139.483 Y124.41 E1.72959
G1 X139.669 Y125.017 E1.7507
G1 X139.924 Y125.893 E1.78105
G1 X140.131 Y126.637 E1.80673
G1 X140.171 Y126.8 E1.81232
G1 X140.304 Y127.401 E1.83279
G1 X140.514 Y128.421 E1.86743
G1 X140.666 Y129.25 E1.89546
G1 X140.747 Y129.823 E1.91471
G1 X140.884 Y130.938 E1.95207
G1 X140.964 Y131.726 E1.97841
G1 X141.005 Y132.434 E2.002
G1 X141.041 Y133.339 E2.03213
G1 X141.062 Y134.273 E2.0632
G1 X141.045 Y134.94 E2.08539
G1 X141.007 Y135.869 E2.11631
G1 X140.953 Y136.797 E2.14723
G1 X140.886 Y137.423 E2.16817
G1 X140.767 Y138.396 E2.20078
G1 X140.64 Y139.287 E2.23071
G1 X140.518 Y139.935 E2.25264
G1 X140.328 Y140.857 E2.28395
G1 X140.128 Y141.746 E2.31426
G1 X139.956 Y142.377 E2.33601
G1 X139.697 Y143.267 E2.36684
G1 X139.41 Y144.186 E2.39886
G1 X139.194 Y144.78 E2.41988
G1 X138.851 Y145.676 E2.45179
G1 X138.521 Y146.5 E2.48132
G1 X138.32 Y146.965 E2.49817
G1 X138.076 Y147.497 E2.51763
G1 X137.829 Y147.939 E2.53447
G1 X137.516 Y148.336 E2.55129
G1 X137.145 Y148.679 E2.56809
G1 X136.724 Y148.959 E2.58491
G1 X136.264 Y149.169 E2.60173
G1 X135.777 Y149.304 E2.61854
G1 X135.275 Y149.361 E2.63534
G1 X134.77 Y149.338 E2.65215
G1 X134.275 Y149.236 E2.66896
G1 X133.704 Y149.009 E2.6894
G1 X133.344 Y148.824 E2.70286
G1 X131.655 Y147.926 E2.76649
G1 X129.199 Y146.705 E2.85771
G1 X126.725 Y145.562 E2.94835
G1 X124.194 Y144.478 E3.03993
G1 X121.641 Y143.468 E3.13125
G1 X119.085 Y142.543 E3.22166
G1 X116.492 Y141.685 E3.3125
G1 X113.862 Y140.896 E3.40383
G1 X111.215 Y140.183 E3.495
G1 X108.566 Y139.548 E3.5856
G1 X105.865 Y138.981 E3.6774
G1 X103.161 Y138.496 E3.76877
G1 X100.475 Y138.09 E3.85912
G1 X97.768 Y137.759 E3.94983
G1 X95.025 Y137.502 E4.04146
G1 X92.316 Y137.325 E4.13175
G1 X89.563 Y137.224 E4.22338
G1 X86.838 Y137.2 E4.31402
G1 X82.744 Y137.308 E4.45023
G1 X82.299 Y137.329 E4.46505
G1 X81.794 Y137.314 E4.48185
G1 X81.298 Y137.218 E4.49865
G1 X80.822 Y137.046 E4.51549
G1 X80.38 Y136.801 E4.5323
G1 X79.982 Y136.49 E4.5491
G1 X79.637 Y136.12 E4.56592
G1 X79.356 Y135.7 E4.58273
G1 X79.144 Y135.241 E4.59955
G1 X79.007 Y134.754 E4.61637
G1 X78.946 Y134.077 E4.63898
G1 X78.959 Y133.399 E4.66154
G1 X78.974 Y132.968 E4.67588
G1 X78.998 Y132.521 E4.69077
G1 X79.12 Y131.06 E4.73953
G1 X79.178 Y130.5 E4.75826
G1 X79.28 Y129.67 E4.78607
G1 X79.387 Y129.035 E4.80749
G1 X79.564 Y128.086 E4.8396
G1 X79.753 Y127.167 E4.8708
G1 X79.908 Y126.561 E4.89161
G1 X80.159 Y125.638 E4.92342
G1 X80.36 Y124.934 E4.94777
G1 X80.411 Y124.774 E4.95336
G1 X80.648 Y124.086 E4.97756
G1 X80.937 Y123.287 E5.00582
G1 X81.215 Y122.544 E5.0322
G1 X81.28 Y122.386 E5.03789
G1 X81.533 Y121.808 E5.05887
G1 X81.911 Y120.974 E5.08933
G1 X82.336 Y120.088 E5.12201
G1 X82.622 Y119.557 E5.14207
G1 X83.084 Y118.726 E5.17369
G1 X83.557 Y117.912 E5.20501
G1 X83.896 Y117.387 E5.22579
G1 X84.469 Y116.529 E5.26011
G1 X84.915 Y115.886 E5.28613
G1 X85.429 Y115.183 E5.3151
G1 X86.24 Y114.103 E5.36002
G1 X87.796 Y111.905 E5.44959
G1 X89.324 Y109.612 E5.54124
G1 X90.792 Y107.267 E5.63326
G1 X92.167 Y104.926 E5.72355
G1 X93.48 Y102.539 E5.81417
G1 X94.748 Y100.07 E5.90648
G1 X95.916 Y97.628 E5.99651
G1 X97.03 Y95.118 E6.08785
G1 X98.065 Y92.601 E6.17837
G1 X99.043 Y90.011 E6.27045
G1 X99.939 Y87.425 E6.36148
G1 X100.75 Y84.847 E6.45136
G1 X101.502 Y82.201 E6.54285
G1 X101.916 Y80.604 E6.59773
G1 X102.18 Y79.552 E6.6338
G1 X102.297 Y79.182 E6.64671
G1 X102.382 Y78.961 E6.65458
G1 X102.6 Y78.505 E6.67139
G1 X102.758 Y78.259 E6.68112
G1 X102.948 Y77.991 E6.69204
G1 X103.273 Y77.603 E6.70888
G1 X103.771 Y77.188 E6.73044
G1 X104.001 Y77.033 E6.73966
G1 X104.441 Y76.785 E6.75646
G1 X104.843 Y76.63 E6.77079
G1 X105.066 Y76.561 E6.77856
G1 X105.559 Y76.45 E6.79537
G1 X105.826 Y76.423 E6.80429
G1 X106.285 Y76.4 E6.81958
G1 X106.642 Y76.396 E6.83145
G1 X123.652 Y76.397 E7.39721
G1 X124.402 Y76.407 E7.42215
G0 F9000 X124.408 Y76.007
G1 F2100 X124.884 Y76.046 E7.43804
G1 X125.134 Y76.083 E7.44644
G1 X125.657 Y76.201 E7.46428
G1 X126.277 Y76.455 E7.48656
G1 X126.573 Y76.61 E7.49767
G1 X127.028 Y76.893 E7.5155
G1 X127.436 Y77.241 E7.53333
G1 X127.751 Y77.597 E7.54914
G1 X127.986 Y77.901 E7.56192
G1 X128.282 Y78.349 E7.57978
G1 X128.439 Y78.666 E7.59155
G1 X128.513 Y78.836 E7.59771
G1 X128.69 Y79.342 E7.61554
G1 X128.795 Y79.919 E7.63505
G1 X128.834 Y80.314 E7.64825
G1 X128.849 Y80.546 E7.65598
G1 X128.914 Y82.608 E7.7246
G1 X129.059 Y85.331 E7.8153
G1 X129.283 Y88.055 E7.9062
G1 X129.578 Y90.733 E7.99581
G1 X129.959 Y93.471 E8.08775
G1 X130.407 Y96.132 E8.17751
G1 X130.936 Y98.81 E8.2683
G1 X131.542 Y101.482 E8.35943
G1 X132.214 Y104.105 E8.44948
G1 X132.968 Y106.727 E8.54023
G1 X133.8 Y109.345 E8.63159
G1 X134.693 Y111.899 E8.72158
G1 X135.679 Y114.482 E8.81354
G1 X136.701 Y116.947 E8.90229
G1 X138.251 Y120.366 E9.02715
G1 X138.583 Y121.062 E9.0528
G1 X138.943 Y121.855 E9.08176
G1 X139.191 Y122.469 E9.10379
G1 X139.524 Y123.344 E9.13493
G1 X139.807 Y124.119 E9.16237
G1 X139.865 Y124.293 E9.16847
G1 X140.054 Y124.905 E9.18977
G1 X140.309 Y125.781 E9.22012
G1 X140.562 Y126.713 E9.25224
G1 X140.707 Y127.369 E9.27458
G1 X140.907 Y128.347 E9.30778
G1 X141.063 Y129.194 E9.33643
G1 X141.144 Y129.774 E9.35591
G1 X141.282 Y130.895 E9.39347
G1 X141.364 Y131.703 E9.42049
G1 X141.405 Y132.418 E9.44431
G1 X141.441 Y133.323 E9.47443
G1 X141.462 Y134.283 E9.50637
G1 X141.445 Y134.956 E9.52876
G1 X141.407 Y135.885 E9.55968
G1 X141.351 Y136.839 E9.59147
G1 X141.277 Y137.518 E9.61419
G1 X141.163 Y138.45 E9.64542
G1 X141.033 Y139.36 E9.67599
G1 X140.91 Y140.016 E9.69819
G1 X140.709 Y140.987 E9.73117
G1 X140.514 Y141.852 E9.76066
G1 X140.34 Y142.489 E9.78262
G1 X140.065 Y143.431 E9.81526
G1 X139.786 Y144.323 E9.84635
G1 X139.567 Y144.923 E9.86759
G1 X139.206 Y145.866 E9.90118
G1 X138.888 Y146.658 E9.92956
G1 X138.683 Y147.132 E9.94674
G1 X138.439 Y147.664 E9.9662
G1 X138.18 Y148.133 E9.98402
G1 X137.854 Y148.559 E10.00187
G1 X137.468 Y148.932 E10.01972
G1 X137.031 Y149.243 E10.03756
G1 X136.553 Y149.485 E10.05538
G1 X136.044 Y149.654 E10.07322
G1 X135.516 Y149.746 E10.09104
G1 X134.98 Y149.758 E10.10887
G1 X134.448 Y149.69 E10.12671
G1 X133.932 Y149.544 E10.14455
G1 X133.522 Y149.365 E10.15943
G1 X133.115 Y149.156 E10.17465
G1 X131.468 Y148.279 E10.23671
G1 X129.032 Y147.068 E10.32719
G1 X126.578 Y145.935 E10.41709
G1 X124.025 Y144.842 E10.50946
G1 X121.494 Y143.84 E10.59999
G1 X118.971 Y142.927 E10.68923
G1 X116.357 Y142.062 E10.78081
G1 X113.748 Y141.279 E10.87141
G1 X111.123 Y140.572 E10.96183
G1 X108.462 Y139.935 E11.05284
G1 X105.783 Y139.373 E11.14388
G1 X103.136 Y138.897 E11.23333
G1 X100.403 Y138.485 E11.32526
G1 X97.715 Y138.155 E11.41533
G1 X94.998 Y137.9 E11.5061
G1 X92.31 Y137.725 E11.59569
G1 X89.546 Y137.623 E11.68769
G1 X86.845 Y137.601 E11.77752
G1 X82.776 Y137.707 E11.91291
G1 X82.319 Y137.729 E11.92812
G1 X81.783 Y137.715 E11.94596
G1 X81.254 Y137.621 E11.96383
G1 X80.746 Y137.45 E11.98165
G1 X80.269 Y137.205 E11.99949
G1 X79.834 Y136.892 E12.01731
G1 X79.449 Y136.518 E12.03517
G1 X79.125 Y136.091 E12.05299
G1 X78.868 Y135.62 E12.07084
G1 X78.683 Y135.117 E12.08867
G1 X78.575 Y134.591 E12.10653
G1 X78.547 Y134.07 E12.12388
G1 X78.559 Y133.385 E12.14667
G1 X78.574 Y132.948 E12.16121
G1 X78.599 Y132.488 E12.17653
G1 X78.722 Y131.019 E12.22556
G1 X78.78 Y130.453 E12.24448
G1 X78.886 Y129.604 E12.27294
G1 X78.994 Y128.962 E12.2946
G1 X79.181 Y127.962 E12.32843
G1 X79.325 Y127.247 E12.35269
G1 X79.366 Y127.069 E12.35877
G1 X79.522 Y126.456 E12.3798
G1 X79.773 Y125.533 E12.41162
G1 X79.976 Y124.824 E12.43615
G1 X80.033 Y124.644 E12.44243
G1 X80.272 Y123.95 E12.46684
G1 X80.561 Y123.151 E12.4951
G1 X80.913 Y122.225 E12.52805
G1 X81.187 Y121.6 E12.55075
G1 X81.57 Y120.76 E12.58145
G1 X81.983 Y119.898 E12.61324
G1 X82.295 Y119.321 E12.63506
G1 X82.735 Y118.532 E12.66511
G1 X83.221 Y117.695 E12.6973
G1 X83.563 Y117.165 E12.71828
G1 X84.14 Y116.301 E12.75283
G1 X84.592 Y115.65 E12.77919
G1 X85.106 Y114.947 E12.80816
G1 X85.897 Y113.893 E12.85199
G1 X87.48 Y111.657 E12.94311
G1 X88.996 Y109.383 E13.03401
G1 X90.441 Y107.073 E13.12463
G1 X91.83 Y104.71 E13.2158
G1 X93.14 Y102.328 E13.30622
G1 X94.375 Y99.923 E13.39614
G1 X95.548 Y97.473 E13.48648
G1 X96.666 Y94.952 E13.57821
G1 X97.697 Y92.444 E13.6684
G1 X98.663 Y89.887 E13.75931
G1 X99.555 Y87.311 E13.84998
G1 X100.369 Y84.723 E13.94021
G1 X101.118 Y82.089 E14.03129
G1 X101.529 Y80.503 E14.08579
G1 X101.792 Y79.455 E14.12172
G1 X101.924 Y79.039 E14.13624
G1 X102.009 Y78.818 E14.14412
G1 X102.238 Y78.333 E14.16195
G1 X102.432 Y78.028 E14.17398
G1 X102.622 Y77.76 E14.1849
G1 X102.964 Y77.347 E14.20274
G1 X103.547 Y76.857 E14.22807
G1 X103.777 Y76.702 E14.23729
G1 X104.243 Y76.436 E14.25514
G1 X104.725 Y76.248 E14.27235
G1 X104.948 Y76.179 E14.28011
G1 X105.471 Y76.059 E14.29796
G1 X105.803 Y76.024 E14.30906
G1 X106.281 Y76 E14.32498
G1 X106.638 Y75.996 E14.33685
G1 X123.652 Y75.997 E14.90274
G1 X124.408 Y76.007 E14.92789
G0 F9000 X124.414 Y75.607
G1 F2100 X124.943 Y75.65 E14.94554
G1 X125.193 Y75.687 E14.95395
G1 X125.745 Y75.809 E14.97275
G1 X126.463 Y76.1 E14.99852
G1 X126.759 Y76.255 E15.00963
G1 X127.24 Y76.552 E15.02843
G1 X127.674 Y76.914 E15.04723
G1 X128.068 Y77.353 E15.06685
G1 X128.303 Y77.657 E15.07963
G1 X128.616 Y78.127 E15.09841
G1 X128.806 Y78.507 E15.11254
G1 X128.88 Y78.677 E15.11871
G1 X129.068 Y79.21 E15.13751
G1 X129.193 Y79.88 E15.16018
G1 X129.232 Y80.275 E15.17338
G1 X129.249 Y80.533 E15.18198
G1 X129.292 Y81.805 E15.22431
G1 X129.314 Y82.615 E15.25126
G1 X129.457 Y85.276 E15.33989
G1 X129.681 Y88.014 E15.43126
G1 X129.978 Y90.705 E15.52131
G1 X130.35 Y93.381 E15.61117
G1 X130.807 Y96.094 E15.70267
G1 X131.324 Y98.716 E15.79156
G1 X131.926 Y101.364 E15.88188
G1 X132.608 Y104.028 E15.97334
G1 X133.35 Y106.61 E16.0627
G1 X134.173 Y109.198 E16.15302
G1 X135.08 Y111.793 E16.24445
G1 X136.038 Y114.304 E16.33384
G1 X137.077 Y116.809 E16.42404
G1 X138.593 Y120.152 E16.54613
G1 X138.947 Y120.895 E16.5735
G1 X139.314 Y121.705 E16.60308
G1 X139.564 Y122.326 E16.62534
G1 X139.917 Y123.253 E16.65833
G1 X140.183 Y123.982 E16.68415
G1 X140.248 Y124.175 E16.69092
G1 X140.438 Y124.793 E16.71242
G1 X140.707 Y125.719 E16.7445
G1 X140.902 Y126.423 E16.76879
G1 X140.953 Y126.627 E16.77579
G1 X141.099 Y127.289 E16.79833
G1 X141.3 Y128.273 E16.83174
G1 X141.459 Y129.138 E16.86099
G1 X141.541 Y129.725 E16.8807
G1 X141.679 Y130.853 E16.9185
G1 X141.763 Y131.679 E16.94611
G1 X141.805 Y132.402 E16.9702
G1 X141.843 Y133.362 E17.00216
G1 X141.862 Y134.091 E17.02641
G1 X141.862 Y134.293 E17.03313
G1 X141.845 Y134.972 E17.05572
G1 X141.804 Y135.955 E17.08844
G1 X141.765 Y136.673 E17.11236
G1 X141.748 Y136.882 E17.11933
G1 X141.674 Y137.567 E17.14225
G1 X141.559 Y138.505 E17.17368
G1 X141.426 Y139.434 E17.20489
G1 X141.302 Y140.096 E17.2273
G1 X141.1 Y141.073 E17.26048
G1 X140.9 Y141.957 E17.29062
G1 X140.724 Y142.601 E17.31283
G1 X140.447 Y143.548 E17.34565
G1 X140.162 Y144.46 E17.37743
G1 X139.941 Y145.066 E17.39888
G1 X139.577 Y146.014 E17.43265
G1 X139.256 Y146.816 E17.46139
G1 X139.047 Y147.299 E17.47889
G1 X138.803 Y147.831 E17.49836
G1 X138.531 Y148.326 E17.51714
G1 X138.193 Y148.779 E17.53594
G1 X137.794 Y149.18 E17.55476
G1 X137.342 Y149.52 E17.57357
G1 X136.847 Y149.793 E17.59237
G1 X136.319 Y149.994 E17.61116
G1 X135.767 Y150.118 E17.62998
G1 X135.204 Y150.163 E17.64876
G1 X134.639 Y150.128 E17.66759
G1 X134.086 Y150.014 E17.68637
G1 X133.339 Y149.721 E17.71306
G1 X132.927 Y149.509 E17.72847
G1 X131.281 Y148.633 E17.79049
G1 X128.865 Y147.432 E17.88022
G1 X126.39 Y146.288 E17.97091
G1 X123.9 Y145.223 E18.06099
G1 X121.348 Y144.212 E18.15228
G1 X118.825 Y143.3 E18.24151
G1 X116.253 Y142.448 E18.33163
G1 X113.643 Y141.665 E18.42226
G1 X111.023 Y140.959 E18.51251
G1 X108.4 Y140.331 E18.60222
G1 X105.695 Y139.764 E18.69414
G1 X103.043 Y139.287 E18.78376
G1 X100.366 Y138.883 E18.87381
G1 X97.696 Y138.556 E18.96328
G1 X94.971 Y138.3 E19.05431
G1 X92.235 Y138.122 E19.1455
G1 X89.563 Y138.024 E19.23443
G1 X86.852 Y138.001 E19.3246
G1 X82.759 Y138.108 E19.46078
G1 X82.338 Y138.128 E19.4748
G1 X81.773 Y138.116 E19.4936
G1 X81.215 Y138.023 E19.51241
G1 X80.676 Y137.853 E19.53121
G1 X80.166 Y137.609 E19.55002
G1 X79.696 Y137.295 E19.56882
G1 X79.275 Y136.918 E19.58761
G1 X78.911 Y136.485 E19.60643
G1 X78.611 Y136.005 E19.62525
G1 X78.383 Y135.488 E19.64405
G1 X78.229 Y134.944 E19.66285
G1 X78.154 Y134.384 E19.68164
G1 X78.147 Y134.063 E19.69232
G1 X78.159 Y133.372 E19.71531
G1 X78.201 Y132.454 E19.74587
G1 X78.324 Y130.978 E19.79513
G1 X78.383 Y130.405 E19.81429
G1 X78.491 Y129.538 E19.84335
G1 X78.601 Y128.889 E19.86525
G1 X78.789 Y127.883 E19.89929
G1 X78.933 Y127.168 E19.92354
G1 X78.978 Y126.97 E19.9303
G1 X79.136 Y126.351 E19.95155
G1 X79.401 Y125.378 E19.98509
G1 X79.591 Y124.714 E20.00806
G1 X79.654 Y124.514 E20.01503
G1 X79.895 Y123.813 E20.03969
G1 X80.184 Y123.014 E20.06795
G1 X80.466 Y122.263 E20.09463
G1 X80.547 Y122.065 E20.10174
G1 X80.823 Y121.434 E20.12465
G1 X81.209 Y120.589 E20.15555
G1 X81.631 Y119.708 E20.18804
G1 X81.946 Y119.126 E20.21005
G1 X82.412 Y118.289 E20.24191
G1 X82.781 Y117.648 E20.26651
G1 X82.885 Y117.479 E20.27311
G1 X83.231 Y116.942 E20.29436
G1 X83.811 Y116.074 E20.32908
G1 X84.269 Y115.414 E20.3558
G1 X84.815 Y114.669 E20.38652
G1 X85.568 Y113.668 E20.42818
G1 X87.166 Y111.41 E20.52019
G1 X88.641 Y109.196 E20.60867
G1 X90.1 Y106.865 E20.70014
G1 X91.468 Y104.536 E20.78997
G1 X92.791 Y102.131 E20.88127
G1 X94.016 Y99.746 E20.97045
G1 X95.199 Y97.274 E21.06159
G1 X96.289 Y94.818 E21.15096
G1 X97.324 Y92.299 E21.24154
G1 X98.286 Y89.751 E21.33213
G1 X99.171 Y87.197 E21.42203
G1 X99.989 Y84.599 E21.51262
G1 X100.736 Y81.967 E21.60362
G1 X101.142 Y80.403 E21.65736
G1 X101.404 Y79.357 E21.69323
G1 X101.551 Y78.895 E21.70935
G1 X101.636 Y78.674 E21.71723
G1 X101.875 Y78.162 E21.73602
G1 X102.106 Y77.797 E21.75039
G1 X102.296 Y77.529 E21.76132
G1 X102.655 Y77.092 E21.78013
G1 X103.071 Y76.71 E21.79891
G1 X103.324 Y76.525 E21.80934
G1 X103.554 Y76.37 E21.81856
G1 X104.044 Y76.088 E21.83736
G1 X104.607 Y75.866 E21.85749
G1 X104.83 Y75.797 E21.86526
G1 X105.38 Y75.668 E21.88405
G1 X105.779 Y75.625 E21.89739
G1 X106.276 Y75.6 E21.91395
G1 X106.633 Y75.596 E21.92582
G1 X123.652 Y75.597 E22.49187
G1 X124.414 Y75.607 E22.51722
